assets/Face holding back tears/Flat/face_holding_back_tears_flat.svg

<svg width="32" height="32" viewBox="0 0 32 32" fill="none" xmlns="http://www.w3.org/2000/svg">
<path d="M16.0184 30C25.3659 30 30.0369 23.7238 30.0369 15.9816C30.0369 8.23941 25.3659 1.96313 16.0184 1.96313C6.67095 1.96313 2 8.23941 2 15.9816C2 23.7238 6.67095 30 16.0184 30Z" fill="#FFB02E"/>
<path d="M14.9615 16.5957C14.9615 18.9306 13.0687 20.8233 10.7339 20.8233C8.39904 20.8233 6.50629 18.9306 6.50629 16.5957C6.50629 14.2609 8.39904 12.3682 10.7339 12.3682C13.0687 12.3682 14.9615 14.2609 14.9615 16.5957Z" fill="white"/>
<path d="M17 16.5957C17 18.9306 18.8928 20.8233 21.2276 20.8233C23.5624 20.8233 25.4552 18.9306 25.4552 16.5957C25.4552 14.2609 23.5624 12.3682 21.2276 12.3682C18.8928 12.3682 17 14.2609 17 16.5957Z" fill="white"/>
<path d="M10.0188 7.38763L10.0156 7.40386C10.0124 7.41938 10.0069 7.44477 9.99845 7.47861C9.98149 7.54642 9.95302 7.64738 9.9086 7.77038C9.81934 8.01757 9.66842 8.34622 9.42342 8.67289C8.94671 9.30849 8.08873 9.97499 6.50629 9.97499C6.23014 9.97499 6.00629 10.1988 6.00629 10.475C6.00629 10.7511 6.23014 10.975 6.50629 10.975C8.42874 10.975 9.57355 10.1394 10.2234 9.27289C10.5417 8.84852 10.735 8.42611 10.8492 8.11002C10.9064 7.95137 10.9445 7.81763 10.9686 7.72115C10.9807 7.67284 10.9893 7.63369 10.9952 7.60521C10.9981 7.59096 11.0003 7.57936 11.0019 7.5706L11.0039 7.5596L11.0046 7.55574L11.0049 7.55423L11.0051 7.55299C11.0505 7.28061 10.8665 7.02299 10.5941 6.9776C10.3219 6.93223 10.0645 7.11553 10.0188 7.38763Z" fill="#402A32"/>
<path d="M22.0204 7.38823L22.0235 7.40386C22.0267 7.41938 22.0322 7.44477 22.0407 7.47861C22.0576 7.54642 22.0861 7.64738 22.1305 7.77038C22.2198 8.01757 22.3707 8.34622 22.6157 8.67289C23.0924 9.30849 23.9504 9.97499 25.5328 9.97499C25.809 9.97499 26.0328 10.1988 26.0328 10.475C26.0328 10.7511 25.809 10.975 25.5328 10.975C23.6104 10.975 22.4656 10.1394 21.8157 9.27289C21.4974 8.84852 21.3041 8.42611 21.19 8.11002C21.1327 7.95137 21.0946 7.81763 21.0705 7.72115C21.0584 7.67284 21.0498 7.63369 21.044 7.60521C21.041 7.59096 21.0388 7.57936 21.0372 7.5706L21.0352 7.5596L21.0345 7.55574L21.0342 7.55423L21.034 7.55299C20.9886 7.28061 21.1726 7.02299 21.445 6.9776C21.7169 6.93229 21.974 7.11546 22.0201 7.38693L22.0204 7.38823Z" fill="#402A32"/>
<path d="M13.5171 22.4351C13.2092 22.158 12.735 22.183 12.4579 22.4908C12.1808 22.7987 12.2058 23.2729 12.5137 23.55C13.4397 24.3835 14.7649 24.7565 16.0196 24.7565C17.2743 24.7565 18.5994 24.3835 19.5255 23.55C19.8334 23.2729 19.8583 22.7987 19.5812 22.4908C19.3041 22.183 18.8299 22.158 18.522 22.4351C17.946 22.9535 17.018 23.2565 16.0196 23.2565C15.0211 23.2565 14.0932 22.9535 13.5171 22.4351Z" fill="#402A32"/>
<path d="M11.1156 19.9857C13.1597 19.9857 14.8168 18.3287 14.8168 16.2846C14.8168 14.2405 13.1597 12.5834 11.1156 12.5834C9.07149 12.5834 7.41442 14.2405 7.41442 16.2846C7.41442 18.3287 9.07149 19.9857 11.1156 19.9857ZM13.6804 14.4447C14.1429 15.1132 14.075 15.9614 13.5289 16.3392C12.9827 16.7171 12.1651 16.4814 11.7026 15.813C11.2401 15.1445 11.308 14.2963 11.8541 13.9184C12.4003 13.5406 13.218 13.7762 13.6804 14.4447Z" fill="#402A32"/>
<path d="M17.1446 16.2846C17.1446 18.3287 18.8017 19.9857 20.8458 19.9857C22.8899 19.9857 24.547 18.3287 24.547 16.2846C24.547 14.2405 22.8899 12.5834 20.8458 12.5834C18.8017 12.5834 17.1446 14.2405 17.1446 16.2846ZM23.0111 16.3392C22.4649 16.7171 21.6473 16.4814 21.1848 15.813C20.7223 15.1445 20.7902 14.2963 21.3363 13.9184C21.8825 13.5406 22.7001 13.7762 23.1626 14.4447C23.6251 15.1132 23.5572 15.9614 23.0111 16.3392Z" fill="#402A32"/>
<path d="M14.211 19C13.4024 20.1774 12.0682 20.9496 10.5319 20.9496C10.0791 20.9496 9.64199 20.8825 9.22992 20.7577C9.13613 20.7293 9.03918 20.798 9.03918 20.896C9.03918 21.5057 8.5449 22 7.93518 22C7.32546 22 6.83118 21.5057 6.83118 20.896L6.83118 20C6.83117 19.4477 7.27889 19 7.83118 19H14.211Z" fill="#3F5FFF"/>
<path d="M17.7505 19C18.5591 20.1774 19.8933 20.9496 21.4295 20.9496C21.8823 20.9496 22.3195 20.8825 22.7315 20.7577C22.8253 20.7293 22.9223 20.798 22.9223 20.896C22.9223 21.5057 23.4166 22 24.0263 22C24.636 22 25.1303 21.5057 25.1303 20.896L25.1303 20C25.1303 19.4477 24.6826 19 24.1303 19H17.7505Z" fill="#3F5FFF"/>
</svg>

<svg xmlns="http://www.w3.org/2000/svg" width="32" height="32" fill="none"><path fill="#FFB02E" d="M16.018 30c9.348 0 14.019-6.276 14.019-14.018 0-7.743-4.671-14.019-14.019-14.019C6.671 1.963 2 8.24 2 15.982 2 23.724 6.671 30 16.018 30Z"/><path fill="#fff" d="M14.961 16.596a4.228 4.228 0 1 1-8.455 0 4.228 4.228 0 0 1 8.455 0ZM17 16.596a4.228 4.228 0 1 0 8.455 0 4.228 4.228 0 0 0-8.455 0Z"/><path fill="#402A32" d="m10.019 7.388-.003.016-.018.075a3.496 3.496 0 0 1-.575 1.194c-.476.635-1.334 1.302-2.917 1.302a.5.5 0 1 0 0 1c1.923 0 3.068-.836 3.717-1.702a4.498 4.498 0 0 0 .746-1.552 2.882 2.882 0 0 0 .033-.15l.002-.011v-.006l.001-.001a.5.5 0 0 0-.986-.165ZM22.02 7.388l.003.016.018.075a3.497 3.497 0 0 0 .575 1.194c.476.635 1.334 1.302 2.917 1.302a.5.5 0 1 1 0 1c-1.923 0-3.067-.836-3.717-1.702a4.494 4.494 0 0 1-.745-1.552 2.69 2.69 0 0 1-.034-.15l-.002-.011v-.006l-.001-.001a.5.5 0 0 1 .986-.166v.001ZM13.517 22.435a.75.75 0 0 0-1.003 1.115c.926.834 2.25 1.206 3.506 1.206 1.254 0 2.58-.372 3.506-1.206a.75.75 0 1 0-1.004-1.115c-.576.518-1.504.822-2.502.822-.999 0-1.927-.304-2.503-.822ZM11.116 19.986a3.701 3.701 0 1 0 0-7.403 3.701 3.701 0 0 0 0 7.403Zm2.564-5.541c.463.668.395 1.516-.151 1.894-.546.378-1.364.142-1.826-.526-.463-.668-.395-1.517.151-1.895.546-.377 1.364-.142 1.826.527ZM17.145 16.285a3.701 3.701 0 1 0 7.402 0 3.701 3.701 0 0 0-7.402 0Zm5.866.054c-.546.378-1.364.142-1.826-.526-.463-.668-.395-1.517.151-1.895.547-.377 1.364-.142 1.827.527.462.668.394 1.516-.152 1.894Z"/><path fill="#3F5FFF" d="M14.211 19a4.442 4.442 0 0 1-3.68 1.95c-.452 0-.889-.067-1.301-.192a.147.147 0 0 0-.19.138 1.104 1.104 0 0 1-2.209 0V20a1 1 0 0 1 1-1h6.38ZM17.75 19a4.442 4.442 0 0 0 3.68 1.95c.452 0 .89-.067 1.302-.192.093-.029.19.04.19.138a1.104 1.104 0 0 0 2.208 0V20a1 1 0 0 0-1-1h-6.38Z"/></svg>
